src/components/accountSharing/ReadStudyCaseSection/ChooseAnswerSVG.svg

<svg viewBox="0 0 608 440" fill="none" xmlns="http://www.w3.org/2000/svg">
    <g opacity="0.4">
        <path d="M0 0V440" stroke="#E3E3ED" stroke-width="1.2" />
        <path d="M80 0V440" stroke="#E3E3ED" stroke-width="1.2" />
        <path d="M160 0V440" stroke="#E3E3ED" stroke-width="1.2" />
        <path d="M240 0V440" stroke="#E3E3ED" stroke-width="1.2" />
        <path d="M320 0V440" stroke="#E3E3ED" stroke-width="1.2" />
        <path d="M400 0V440" stroke="#E3E3ED" stroke-width="1.2" />
        <path d="M480 0V440" stroke="#E3E3ED" stroke-width="1.2" />
        <path d="M560 0V440" stroke="#E3E3ED" stroke-width="1.2" />
        <path d="M600 60H0" stroke="#E3E3ED" stroke-width="1.2" />
        <path d="M600 140H0" stroke="#E3E3ED" stroke-width="1.2" />
        <path d="M600 220H0" stroke="#E3E3ED" stroke-width="1.2" />
        <path d="M600 300H0" stroke="#E3E3ED" stroke-width="1.2" />
        <path d="M600 380H0" stroke="#E3E3ED" stroke-width="1.2" />
    </g>
    <rect width="608" height="440" fill="url(#paint0_linear)" />
    <rect x="40" y="40" width="444.091" height="364" rx="12" fill="#272A3F" />
    <path
        d="M64.98 76.894C66.1933 76.0447 67.136 75.326 67.808 74.738C68.48 74.1407 68.9607 73.5993 69.25 73.114C69.5487 72.6193 69.698 72.1107 69.698 71.588C69.698 71.0933 69.5393 70.692 69.222 70.384C68.914 70.076 68.4893 69.922 67.948 69.922C67.3693 69.922 66.9073 70.1133 66.562 70.496C66.226 70.8787 66.0347 71.4107 65.988 72.092L64.686 71.49C64.7793 70.6033 65.12 69.9033 65.708 69.39C66.296 68.8767 67.0707 68.62 68.032 68.62C68.6947 68.62 69.2687 68.7507 69.754 69.012C70.2393 69.264 70.608 69.6093 70.86 70.048C71.112 70.4867 71.238 70.9813 71.238 71.532C71.238 72.4187 70.9067 73.2633 70.244 74.066C69.5907 74.8687 68.4987 75.76 66.968 76.74V76.768C67.4347 76.7307 67.9433 76.712 68.494 76.712H71.406V78H64.98V76.894ZM74.3728 78.98H72.9728L77.1448 67.85H78.5448L74.3728 78.98ZM83.7845 72.064C84.3725 72.064 84.8858 72.19 85.3245 72.442C85.7632 72.6847 86.0992 73.0253 86.3325 73.464C86.5752 73.9027 86.6965 74.4113 86.6965 74.99C86.6965 75.9887 86.3978 76.7633 85.8005 77.314C85.2032 77.8647 84.4052 78.14 83.4065 78.14C82.5665 78.14 81.8758 77.972 81.3345 77.636C80.8025 77.3 80.3778 76.7913 80.0605 76.11L81.4605 75.34C81.6005 75.844 81.8105 76.2267 82.0905 76.488C82.3798 76.74 82.8092 76.866 83.3785 76.866C83.9478 76.866 84.3958 76.712 84.7225 76.404C85.0585 76.096 85.2265 75.662 85.2265 75.102C85.2265 74.5233 85.0725 74.08 84.7645 73.772C84.4565 73.4547 84.0132 73.296 83.4345 73.296C82.5572 73.296 81.9318 73.562 81.5585 74.094L80.3125 74.01L80.8865 68.76H86.2485V70.048H82.0765L81.7545 72.61L81.7265 72.806H81.7405C82.1885 72.3113 82.8698 72.064 83.7845 72.064Z"
        fill="white" />
    <path d="M436.092 65H460.092" stroke="white" stroke-width="2.4" stroke-linecap="round" />
    <path d="M436.092 73H460.092" stroke="white" stroke-width="2.4" stroke-linecap="round" />
    <path d="M436.092 81H460.092" stroke="white" stroke-width="2.4" stroke-linecap="round" />
    <rect opacity="0.3" x="64" y="114" width="397" height="24" rx="4" fill="white" />
    <rect opacity="0.3" x="64" y="146" width="290" height="24" rx="4" fill="white" />
    <circle cx="76" cy="206" r="11.5" stroke="white" />
    <rect opacity="0.3" x="104" y="194" width="137" height="24" rx="4" fill="white" />
    <circle cx="76" cy="246" r="11.5" stroke="white" />
    <rect x="69" y="239" width="14" height="14" rx="7" fill="white" />
    <rect opacity="0.3" x="104" y="234" width="137" height="24" rx="4" fill="white" />
    <circle cx="76" cy="286" r="11.5" stroke="white" />
    <rect opacity="0.3" x="104" y="274" width="137" height="24" rx="4" fill="white" />
    <rect x="64" y="330" width="396.091" height="50" rx="8" fill="#4D5066" />
    <path
        d="M246.568 350.62C247.417 350.62 248.141 350.774 248.738 351.082C249.345 351.39 249.853 351.861 250.264 352.496L249.13 353.518C248.869 352.958 248.542 352.552 248.15 352.3C247.758 352.048 247.235 351.922 246.582 351.922C245.938 351.922 245.439 352.053 245.084 352.314C244.729 352.566 244.552 352.893 244.552 353.294C244.552 353.667 244.725 353.966 245.07 354.19C245.415 354.405 246.031 354.591 246.918 354.75C247.749 354.899 248.407 355.091 248.892 355.324C249.387 355.548 249.746 355.833 249.97 356.178C250.194 356.514 250.306 356.934 250.306 357.438C250.306 357.979 250.152 358.455 249.844 358.866C249.536 359.277 249.102 359.594 248.542 359.818C247.991 360.033 247.352 360.14 246.624 360.14C244.748 360.14 243.423 359.515 242.648 358.264L243.698 357.214C243.997 357.774 244.379 358.185 244.846 358.446C245.322 358.707 245.91 358.838 246.61 358.838C247.273 358.838 247.791 358.726 248.164 358.502C248.547 358.269 248.738 357.942 248.738 357.522C248.738 357.186 248.565 356.915 248.22 356.71C247.884 356.505 247.291 356.323 246.442 356.164C245.593 356.005 244.916 355.809 244.412 355.576C243.908 355.343 243.539 355.053 243.306 354.708C243.082 354.363 242.97 353.943 242.97 353.448C242.97 352.925 243.115 352.449 243.404 352.02C243.693 351.591 244.109 351.25 244.65 350.998C245.201 350.746 245.84 350.62 246.568 350.62ZM259.708 358.712V360H252.82V350.76H259.512V352.048H254.318V354.708H258.378V355.968H254.318V358.712H259.708ZM269.715 360H267.937L264.367 354.176L263.471 352.468H263.457L263.513 354.036V360H262.141V350.76H263.905L267.461 356.57L268.371 358.292H268.385L268.329 356.724V350.76H269.715V360ZM276.131 350.76C277.587 350.76 278.717 351.161 279.519 351.964C280.322 352.767 280.723 353.905 280.723 355.38C280.723 356.855 280.322 357.993 279.519 358.796C278.717 359.599 277.587 360 276.131 360H272.869V350.76H276.131ZM276.131 358.726C277.102 358.726 277.849 358.437 278.371 357.858C278.894 357.27 279.155 356.444 279.155 355.38C279.155 354.316 278.894 353.495 278.371 352.916C277.849 352.328 277.102 352.034 276.131 352.034H274.367V358.726H276.131Z"
        fill="white" />
    <circle cx="484" cy="208" r="45" fill="url(#paint1_linear)" />
    <circle cx="484" cy="208" r="44.3004" stroke="white" stroke-opacity="0.1" stroke-width="1.39927" />
    <path
        d="M471 205.642C471 205.089 471.448 204.642 472 204.642H496C496.552 204.642 497 205.089 497 205.642V214.642V223.642C497 224.194 496.552 224.642 496 224.642H472C471.448 224.642 471 224.194 471 223.642V205.642Z"
        stroke="#FAFAFA" stroke-width="2" />
    <path
        d="M493 205.642V198.642C493 193.671 488.971 189.642 484 189.642V189.642C479.029 189.642 475 193.671 475 198.642V205.642"
        stroke="#FAFAFA" stroke-width="2" />
    <defs>
        <filter id="filter0_d" x="20" y="30" width="484.091" height="404" filterUnits="userSpaceOnUse"
            color-interpolation-filters="sRGB">
            <feFlood flood-opacity="0" result="BackgroundImageFix" />
            <feColorMatrix in="SourceAlpha" type="matrix" values="0 0 0 0 0 0 0 0 0 0 0 0 0 0 0 0 0 0 127 0"
                result="hardAlpha" />
            <feOffset dy="10" />
            <feGaussianBlur stdDeviation="10" />
            <feColorMatrix type="matrix" values="0 0 0 0 0.0509804 0 0 0 0 0.0627451 0 0 0 0 0.168627 0 0 0 1 0" />
            <feBlend mode="normal" in2="BackgroundImageFix" result="effect1_dropShadow" />
            <feBlend mode="normal" in="SourceGraphic" in2="effect1_dropShadow" result="shape" />
        </filter>
        <filter id="filter1_b" x="419.41" y="143.41" width="129.179" height="129.179" filterUnits="userSpaceOnUse"
            color-interpolation-filters="sRGB">
            <feFlood flood-opacity="0" result="BackgroundImageFix" />
            <feGaussianBlur in="BackgroundImage" stdDeviation="9.79487" />
            <feComposite in2="SourceAlpha" operator="in" result="effect1_backgroundBlur" />
            <feBlend mode="normal" in="SourceGraphic" in2="effect1_backgroundBlur" result="shape" />
        </filter>
        <linearGradient id="paint0_linear" x1="0" y1="220" x2="530" y2="220" gradientUnits="userSpaceOnUse">
            <stop stop-color="#0D102B" stop-opacity="0" />
            <stop offset="1" stop-color="#0D102B" />
        </linearGradient>
        <linearGradient id="paint1_linear" x1="484" y1="163" x2="484" y2="253" gradientUnits="userSpaceOnUse">
            <stop stop-color="#F04405" />
            <stop offset="1" stop-color="#FF782D" />
        </linearGradient>
    </defs>
</svg>

<svg fill="none" xmlns="http://www.w3.org/2000/svg" viewBox="0 0 608 440">
    <g opacity=".4" stroke="#E3E3ED" stroke-width="1.2">
        <path
            d="M0 0v440M80 0v440M160 0v440M240 0v440M320 0v440M400 0v440M480 0v440M560 0v440M600 60H0M600 140H0M600 220H0M600 300H0M600 380H0" />
    </g>
    <path fill="url(#a)" d="M0 0h608v440H0z" />
    <g>
        <rect x="40" y="40" width="444.091" height="364" rx="12" fill="#272A3F" />
        <path
            d="M64.98 76.894c1.213-.85 2.156-1.568 2.828-2.156.672-.597 1.153-1.139 1.442-1.624.299-.495.448-1.003.448-1.526 0-.495-.159-.896-.476-1.204-.308-.308-.733-.462-1.274-.462-.579 0-1.04.191-1.386.574-.336.383-.527.915-.574 1.596l-1.302-.602c.093-.887.434-1.587 1.022-2.1.588-.513 1.363-.77 2.324-.77.663 0 1.237.13 1.722.392.485.252.854.597 1.106 1.036.252.439.378.933.378 1.484 0 .887-.331 1.731-.994 2.534-.653.803-1.745 1.694-3.276 2.674v.028c.467-.037.975-.056 1.526-.056h2.912V78H64.98v-1.106Zm9.393 2.086h-1.4l4.172-11.13h1.4l-4.172 11.13Zm9.411-6.916c.588 0 1.102.126 1.54.378.44.243.775.583 1.008 1.022.243.439.365.947.365 1.526 0 .999-.3 1.773-.897 2.324-.597.55-1.395.826-2.394.826-.84 0-1.53-.168-2.072-.504-.532-.336-.956-.845-1.273-1.526l1.4-.77c.14.504.35.887.63 1.148.289.252.718.378 1.288.378.569 0 1.017-.154 1.343-.462.337-.308.505-.742.505-1.302 0-.579-.154-1.022-.463-1.33-.307-.317-.75-.476-1.33-.476-.877 0-1.502.266-1.876.798l-1.246-.084.575-5.25h5.362v1.288h-4.172l-.323 2.562-.028.196h.014c.449-.495 1.13-.742 2.044-.742Z"
            fill="#fff" />
        <path d="M436.091 65h24M436.091 73h24M436.091 81h24" stroke="#fff" stroke-width="2.4" stroke-linecap="round" />
        <rect opacity=".3" x="64" y="114" width="397" height="24" rx="4" fill="#fff" />
        <rect opacity=".3" x="64" y="146" width="290" height="24" rx="4" fill="#fff" />
        <circle cx="76" cy="206" r="11.5" stroke="#fff" />
        <rect opacity=".3" x="104" y="194" width="137" height="24" rx="4" fill="#fff" />
        <circle cx="76" cy="246" r="11.5" stroke="#fff" />
        <rect x="69" y="239" width="14" height="14" rx="7" fill="#fff" />
        <rect opacity=".3" x="104" y="234" width="137" height="24" rx="4" fill="#fff" />
        <circle cx="76" cy="286" r="11.5" stroke="#fff" />
        <rect opacity=".3" x="104" y="274" width="137" height="24" rx="4" fill="#fff" />
        <rect x="64" y="330" width="396.091" height="50" rx="8" fill="#4D5066" />
        <path
            d="M246.568 350.62c.849 0 1.573.154 2.17.462.607.308 1.115.779 1.526 1.414l-1.134 1.022c-.261-.56-.588-.966-.98-1.218s-.915-.378-1.568-.378c-.644 0-1.143.131-1.498.392-.355.252-.532.579-.532.98 0 .373.173.672.518.896.345.215.961.401 1.848.56.831.149 1.489.341 1.974.574.495.224.854.509 1.078.854.224.336.336.756.336 1.26 0 .541-.154 1.017-.462 1.428-.308.411-.742.728-1.302.952-.551.215-1.19.322-1.918.322-1.876 0-3.201-.625-3.976-1.876l1.05-1.05c.299.56.681.971 1.148 1.232.476.261 1.064.392 1.764.392.663 0 1.181-.112 1.554-.336.383-.233.574-.56.574-.98 0-.336-.173-.607-.518-.812-.336-.205-.929-.387-1.778-.546-.849-.159-1.526-.355-2.03-.588-.504-.233-.873-.523-1.106-.868-.224-.345-.336-.765-.336-1.26a2.5 2.5 0 0 1 .434-1.428c.289-.429.705-.77 1.246-1.022.551-.252 1.19-.378 1.918-.378Zm13.14 8.092V360h-6.888v-9.24h6.692v1.288h-5.194v2.66h4.06v1.26h-4.06v2.744h5.39ZM269.715 360h-1.778l-3.57-5.824-.896-1.708h-.014l.056 1.568V360h-1.372v-9.24h1.764l3.556 5.81.91 1.722h.014l-.056-1.568v-5.964h1.386V360Zm6.416-9.24c1.456 0 2.586.401 3.388 1.204.803.803 1.204 1.941 1.204 3.416 0 1.475-.401 2.613-1.204 3.416-.802.803-1.932 1.204-3.388 1.204h-3.262v-9.24h3.262Zm0 7.966c.971 0 1.718-.289 2.24-.868.523-.588.784-1.414.784-2.478 0-1.064-.261-1.885-.784-2.464-.522-.588-1.269-.882-2.24-.882h-1.764v6.692h1.764Z"
            fill="#fff" />
    </g>
    <g>
        <circle cx="484" cy="208" r="45" fill="url(#d)" />
        <circle cx="484" cy="208" r="44.3" stroke="#fff" stroke-opacity=".1" stroke-width="1.399" />
    </g>
    <path d="M471 205.642a1 1 0 0 1 1-1h24a1 1 0 0 1 1 1v18a1 1 0 0 1-1 1h-24a1 1 0 0 1-1-1v-18Z" stroke="#FAFAFA"
        stroke-width="2" />
    <path d="M493 205.642v-7a9 9 0 0 0-9-9 9 9 0 0 0-9 9v7" stroke="#FAFAFA" stroke-width="2" />
    <defs>
        <linearGradient id="a" x1="0" y1="220" x2="530" y2="220" gradientUnits="userSpaceOnUse">
            <stop stop-color="#0D102B" stop-opacity="0" />
            <stop offset="1" stop-color="#0D102B" />
        </linearGradient>
        <linearGradient id="d" x1="484" y1="163" x2="484" y2="253" gradientUnits="userSpaceOnUse">
            <stop stop-color="#F04405" />
            <stop offset="1" stop-color="#FF782D" />
        </linearGradient>
        <filter id="b" x="20" y="30" width="484.091" height="404" filterUnits="userSpaceOnUse"
            color-interpolation-filters="sRGB">
            <feFlood flood-opacity="0" result="BackgroundImageFix" />
            <feColorMatrix in="SourceAlpha" values="0 0 0 0 0 0 0 0 0 0 0 0 0 0 0 0 0 0 127 0" result="hardAlpha" />
            <feOffset dy="10" />
            <feGaussianBlur stdDeviation="10" />
            <feColorMatrix values="0 0 0 0 0.0509804 0 0 0 0 0.0627451 0 0 0 0 0.168627 0 0 0 1 0" />
            <feBlend in2="BackgroundImageFix" result="effect1_dropShadow_363_784" />
            <feBlend in="SourceGraphic" in2="effect1_dropShadow_363_784" result="shape" />
        </filter>
        <filter id="c" x="419.41" y="143.41" width="129.179" height="129.179" filterUnits="userSpaceOnUse"
            color-interpolation-filters="sRGB">
            <feFlood flood-opacity="0" result="BackgroundImageFix" />
            <feGaussianBlur in="BackgroundImage" stdDeviation="9.795" />
            <feComposite in2="SourceAlpha" operator="in" result="effect1_backgroundBlur_363_784" />
            <feBlend in="SourceGraphic" in2="effect1_backgroundBlur_363_784" result="shape" />
        </filter>
    </defs>
</svg>
